X: 3
T: The Bluebell Polka
R: barndance
M: 4/4
L: 1/8
K: Gmaj
|:g|b2b2 gfge|d2d2 B3G|FGAB c2e2|ed^cd B3g|b2b2 gfge|d2d2 B3G|FGAB cdef|g2g2 g3:|||:B|A2A2 FAdf|a2a2 f4|a2(3^gag =g2e2|b2a2 f3d|A2A2 FAdf|a2a2 f4|a2(3^gag =g2e2|1 d3d d3:|| 2 d3d =c4|||:B2BA Bcd2|B2BA Bcd2|c2cd cAF2|c2cd cAF2|B2BA Bcd2|B2BA Bcd2|c2cB cAFA|G2B2 G4:||


Tune 3352	Setting 16411

